icons/desktop/20/passkey-20.svg

<svg width="20" height="20" viewBox="0 0 20 20" fill="none" xmlns="http://www.w3.org/2000/svg">
<g clip-path="url(#clip0_8069_32719)">
<path d="M6 8.75C6.69035 8.75 7.24998 9.30966 7.25 10C7.25 10.6904 6.69036 11.25 6 11.25C5.30964 11.25 4.75 10.6904 4.75 10C4.75002 9.30966 5.30965 8.75 6 8.75Z" fill="black"/>
<path fill-rule="evenodd" clip-rule="evenodd" d="M6.23535 4.00391C8.43678 4.08866 10.3225 5.36224 11.293 7.19238L16.7676 7.18066C19.4801 7.17337 20.9867 10.3199 19.2773 12.4277C18.268 13.6732 16.495 13.9866 15.1201 13.1611L14.8896 13.0225L14.5586 13.3535C13.8165 14.0936 12.6141 14.0946 11.8721 13.3525L11.3154 12.7959H11.2969C10.294 14.6957 8.30562 16 6 16C2.68675 16 0 13.3132 0 10C1.26315e-05 6.68659 2.68715 4.00019 6.00098 3.99902L6.23535 4.00391ZM6.00098 5.74902C3.65297 5.75003 1.75001 7.65354 1.75 10C1.75 12.3468 3.65325 14.25 6 14.25C7.77742 14.25 9.29674 13.1521 9.92969 11.5918C10.0636 11.2617 10.385 11.0459 10.7412 11.0459H11.6777C11.9098 11.0459 12.1328 11.1386 12.2969 11.3027L13.1094 12.1152C13.1672 12.1731 13.2633 12.174 13.3232 12.1143L14.1357 11.3027L14.249 11.207C14.5282 11.0094 14.9029 10.9903 15.2041 11.1709L16.0215 11.6602C16.6484 12.0365 17.4573 11.8945 17.918 11.3262C18.6981 10.3643 18.0111 8.9269 16.7725 8.93066L10.7412 8.94434C10.3849 8.9451 10.0633 8.72939 9.92871 8.39941C9.33393 6.94013 7.96281 5.88769 6.33105 5.76172L6.00098 5.74902Z" fill="black"/>
</g>
<defs>
<clipPath id="clip0_8069_32719">
<rect width="20" height="20" fill="white"/>
</clipPath>
</defs>
</svg>

<!-- This Source Code Form is subject to the terms of the Mozilla Public
   - License, v. 2.0. If a copy of the MPL was not distributed with this
   - file, You can obtain one at http://mozilla.org/MPL/2.0/. -->
<svg xmlns="http://www.w3.org/2000/svg" width="20" height="20" fill="context-fill" fill-opacity="context-fill-opacity" viewBox="0 0 20 20">
    <g clip-path="url(#clip0_8069_32719)">
        <path d="M6 8.75a1.25 1.25 0 1 1 0 2.5 1.25 1.25 0 0 1 0-2.5" />
        <path fill-rule="evenodd" d="M6.235 4.004a5.99 5.99 0 0 1 5.058 3.188l5.475-.011c2.712-.008 4.219 3.139 2.51 5.247a3.22 3.22 0 0 1-4.158.733l-.23-.138-.331.33a1.9 1.9 0 0 1-2.687 0l-.557-.557h-.018A5.99 5.99 0 0 1 6 16a6 6 0 0 1 .001-12.001zm-.234 1.745A4.25 4.25 0 0 0 6 14.25a4.24 4.24 0 0 0 3.93-2.658.88.88 0 0 1 .811-.546h.937c.232 0 .455.093.619.257l.812.812a.15.15 0 0 0 .214 0l.813-.812.113-.096a.88.88 0 0 1 .955-.036l.817.49a1.47 1.47 0 0 0 1.897-.335c.78-.962.093-2.4-1.145-2.395l-6.032.013A.88.88 0 0 1 9.93 8.4 4.25 4.25 0 0 0 6.33 5.762z" clip-rule="evenodd" />
    </g>
</svg>
